src/assets/logo.svg

<svg width="180" height="200" viewBox="0 0 180 200" fill="none" xmlns="http://www.w3.org/2000/svg">
<path d="M90.166 200C93.4473 200 97.373 199.395 101.943 198.184C117.373 192.402 125.088 181.27 125.088 164.785V117.617C125.088 116.719 125.029 115.937 124.912 115.273C124.912 115.156 124.902 115.078 124.883 115.039C124.863 115 124.814 114.922 124.736 114.805C123.135 110.781 120.596 108.77 117.119 108.77H116.65L115.654 108.828H115.127C115.01 108.828 114.873 108.887 114.717 109.004C110.693 110.566 108.682 113.867 108.682 118.906V167.246C108.682 169.863 108.018 172.422 106.689 174.922C102.939 180.82 97.373 183.77 89.9902 183.77C84.4043 183.77 79.6777 182.031 75.8105 178.555C72.6465 175.977 71.0254 171.23 70.9473 164.316L70.8301 116.797C70.8301 116.367 70.791 115.918 70.7129 115.449C70.7129 115.293 70.7031 115.186 70.6836 115.127C70.6641 115.068 70.5957 114.961 70.4785 114.805C68.8379 110.703 66.2402 108.652 62.6855 108.652C61.5527 108.77 60.791 108.906 60.4004 109.062C56.4941 110.625 54.541 113.262 54.541 116.973L54.7168 166.25C54.7559 173.594 56.7871 180.215 60.8105 186.113C68.3105 195.371 78.0176 200 89.9316 200H90.166Z" fill="#5351FB"/>
<path fill-rule="evenodd" clip-rule="evenodd" d="M34.0267 78.2397C25.0747 78.2397 19.5903 80.8572 16.1027 84.9716C13.2457 88.3419 8.19753 88.7581 4.82721 85.9011C1.45689 83.0442 1.04072 77.996 3.89766 74.6257C11.2138 65.9949 21.7471 62.2397 34.0267 62.2397C44.3462 62.2397 53.8044 64.8604 62.1984 70.1408C70.8948 64.9859 80.0577 62.2397 89.6031 62.2397C98.9359 62.2397 107.747 64.8667 115.938 69.8647C123.248 64.9426 132.023 62.6809 141.8 62.6809C154.063 62.6809 164.865 66.2318 173.642 73.7085C177.006 76.5734 177.41 81.6226 174.545 84.9861C171.68 88.3496 166.631 88.7538 163.267 85.8888C157.773 81.2084 150.804 78.6809 141.8 78.6809C133.295 78.6809 127.181 80.9311 122.714 84.787C119.22 87.8032 114.116 88.036 110.361 85.3504L110.22 85.2494C103.457 80.448 96.6344 78.2397 89.6031 78.2397C82.445 78.2397 75.1767 80.531 67.6755 85.6062C64.1535 87.9891 59.5099 87.8844 56.099 85.3452L55.8512 85.1607C49.5737 80.5653 42.3951 78.2397 34.0267 78.2397Z" fill="#5351FB"/>
<path fill-rule="evenodd" clip-rule="evenodd" d="M133.969 32.9107C122.302 22.7916 107.261 17.6512 88.1548 18.0182C68.9596 18.3871 54.0522 23.9035 42.7387 34.0244C31.3296 44.2309 22.8201 59.7981 17.7954 81.5961C16.803 85.9015 12.5082 88.5872 8.20286 87.5947C3.89749 86.6023 1.21181 82.3076 2.20425 78.0022C7.71919 54.0773 17.4796 35.153 32.071 22.0997C46.7579 8.96082 65.5814 2.44902 87.8474 2.0212C110.203 1.59166 129.301 7.68281 144.452 20.8236C159.471 33.8502 169.858 53.1503 176.202 77.8057C177.303 82.0846 174.727 86.4459 170.448 87.5468C166.169 88.6478 161.808 86.0715 160.707 81.7926C154.876 59.1318 145.767 43.1438 133.969 32.9107Z" fill="#5351FB"/>
</svg>

<svg width="180" height="200" fill="none" xmlns="http://www.w3.org/2000/svg"><path d="M90.166 200c3.281 0 7.207-.605 11.777-1.816 15.43-5.782 23.145-16.914 23.145-33.399v-47.168c0-.898-.059-1.68-.176-2.344a.62.62 0 0 0-.029-.234 3.11 3.11 0 0 0-.147-.234c-1.601-4.024-4.14-6.035-7.617-6.035h-.469l-.996.058h-.527c-.117 0-.254.059-.41.176-4.024 1.562-6.035 4.863-6.035 9.902v48.34c0 2.617-.664 5.176-1.993 7.676-3.75 5.898-9.316 8.848-16.699 8.848-5.586 0-10.312-1.739-14.18-5.215-3.163-2.578-4.785-7.325-4.863-14.239l-.117-47.519c0-.43-.039-.879-.117-1.348 0-.156-.01-.263-.03-.322-.019-.059-.087-.166-.205-.322-1.64-4.102-4.238-6.153-7.792-6.153-1.133.118-1.895.254-2.286.41-3.906 1.563-5.859 4.2-5.859 7.911l.176 49.277c.039 7.344 2.07 13.965 6.093 19.863C68.31 195.371 78.018 200 89.933 200h.234z" fill="#5351FB"/><path fill-rule="evenodd" clip-rule="evenodd" d="M34.027 78.24c-8.952 0-14.437 2.617-17.924 6.732A8 8 0 0 1 3.898 74.626c7.316-8.631 17.85-12.386 30.129-12.386 10.32 0 19.777 2.62 28.171 7.9 8.697-5.154 17.86-7.9 27.405-7.9 9.333 0 18.144 2.627 26.335 7.625 7.31-4.922 16.085-7.184 25.862-7.184 12.263 0 23.065 3.55 31.842 11.028a8 8 0 0 1-10.375 12.18c-5.494-4.68-12.463-7.208-21.467-7.208-8.505 0-14.619 2.25-19.086 6.106a10 10 0 0 1-12.353.563l-.141-.1c-6.763-4.802-13.586-7.01-20.617-7.01-7.158 0-14.426 2.291-21.927 7.366a10.001 10.001 0 0 1-11.577-.26l-.248-.185c-6.277-4.596-13.456-6.921-21.824-6.921z" fill="#5351FB"/><path fill-rule="evenodd" clip-rule="evenodd" d="M133.969 32.91c-11.667-10.118-26.708-15.259-45.814-14.892-19.195.37-34.103 5.886-45.416 16.006-11.41 10.207-19.919 25.774-24.944 47.572a8 8 0 1 1-15.59-3.594C7.718 54.077 17.48 35.153 32.07 22.1 46.758 8.96 65.581 2.449 87.847 2.02c22.356-.43 41.454 5.662 56.605 18.803 15.019 13.026 25.406 32.326 31.75 56.982a8 8 0 1 1-15.495 3.987c-5.831-22.661-14.94-38.65-26.738-48.882z" fill="#5351FB"/></svg>
